tools/download-figma-icons/icons/outlined-medium/connector-chademo.svg

<svg width="24" height="25" viewBox="0 0 24 25" fill="none" xmlns="http://www.w3.org/2000/svg">
<path fill-rule="evenodd" clip-rule="evenodd" d="M12 22.5257C6.21 22.5257 1.5 17.8104 1.5 12.0137C1.5 10.0614 2.04 8.15343 3.06 6.50193C3.195 6.28443 3.2025 6.01368 3.0975 5.78118L2.715 4.64718L4.635 2.71743L5.745 3.09318C5.9775 3.21318 6.2625 3.20568 6.495 3.06318C9.7875 1.02093 14.19 1.01268 17.4975 3.06318C17.715 3.19068 17.97 3.20568 18.2025 3.10818L19.3575 2.71743L21.285 4.64718L20.895 5.79618C20.79 6.02118 20.805 6.28443 20.94 6.50193C21.96 8.15343 22.5 10.0614 22.5 12.0137C22.5 17.8104 17.79 22.5257 12 22.5257ZM22.4025 6.02116L22.8525 4.68466C22.9425 4.41466 22.875 4.11391 22.6725 3.91141L20.0925 1.32841C19.89 1.12591 19.5975 1.05766 19.32 1.14841L17.9775 1.59841C14.34 -0.496344 9.645 -0.496344 6.0225 1.59841L4.6725 1.14841C4.4025 1.05766 4.1025 1.12591 3.9 1.32841L1.3275 3.91141C1.125 4.11391 1.0575 4.41466 1.1475 4.68466L1.5975 6.02866C0.5475 7.84591 0 9.90316 0 12.0137C0 18.6362 5.385 24.0272 12 24.0272C18.615 24.0272 24 18.6362 24 12.0137C24 9.90316 23.445 7.83841 22.4025 6.02116ZM6.75 14.2661C5.5125 14.2661 4.5 13.2521 4.5 12.0139C4.5 10.7741 5.5125 9.76086 6.75 9.76086C7.9875 9.76086 9 10.7741 9 12.0139C9 13.2521 7.9875 14.2661 6.75 14.2661ZM6.75 8.25938C4.68 8.25938 3 9.94088 3 12.0139C3 14.0861 4.68 15.7676 6.75 15.7676C8.82 15.7676 10.5 14.0861 10.5 12.0139C10.5 9.94088 8.82 8.25938 6.75 8.25938ZM13.0122 19.0344C13.1622 18.8911 13.1622 18.6511 13.0122 18.5086L12.5254 18.0204L13.0122 17.5321C13.1622 17.3896 13.1622 17.1496 13.0122 17.0071C12.8704 16.8564 12.6297 16.8564 12.4879 17.0071L11.9997 17.4946L11.5122 17.0071C11.3704 16.8564 11.1297 16.8564 10.9879 17.0071C10.8379 17.1496 10.8379 17.3896 10.9879 17.5321L11.4747 18.0204L10.9879 18.5086C10.8379 18.6511 10.8379 18.8911 10.9879 19.0344C11.0554 19.1094 11.1529 19.1469 11.2497 19.1469C11.3472 19.1469 11.4447 19.1094 11.5122 19.0344L11.9997 18.5461L12.4879 19.0344C12.5554 19.1094 12.6529 19.1469 12.7497 19.1469C12.8472 19.1469 12.9447 19.1094 13.0122 19.0344ZM9.7497 18.0204C9.7497 16.7739 10.7547 15.7682 11.9997 15.7682C13.2454 15.7682 14.2497 16.7739 14.2497 18.0204C14.2497 19.2669 13.2454 20.2734 11.9997 20.2734C10.7547 20.2734 9.7497 19.2669 9.7497 18.0204ZM13.0122 6.4944C13.1622 6.6369 13.1622 6.87765 13.0122 7.02015C12.9447 7.09515 12.8472 7.13265 12.7497 7.13265C12.6529 7.13265 12.5554 7.09515 12.4879 7.02015L11.9997 6.5319L11.5122 7.02015C11.4447 7.09515 11.3472 7.13265 11.2497 7.13265C11.1529 7.13265 11.0554 7.09515 10.9879 7.02015C10.8379 6.87765 10.8379 6.6369 10.9879 6.4944L11.4747 6.00615L10.9879 5.5179C10.8379 5.3754 10.8379 5.1354 10.9879 4.9929C11.1297 4.84215 11.3704 4.84215 11.5122 4.9929L11.9997 5.4804L12.4879 4.9929C12.6297 4.84215 12.8704 4.84215 13.0122 4.9929C13.1622 5.1354 13.1622 5.3754 13.0122 5.5179L12.5254 6.00615L13.0122 6.4944ZM11.9997 3.75391C10.7547 3.75391 9.7497 4.75966 9.7497 6.00616C9.7497 7.25266 10.7547 8.25916 11.9997 8.25916C13.2454 8.25916 14.2497 7.25266 14.2497 6.00616C14.2497 4.75966 13.2454 3.75391 11.9997 3.75391ZM15 12.0139C15 13.2521 16.0125 14.2661 17.25 14.2661C18.4875 14.2661 19.5 13.2521 19.5 12.0139C19.5 10.7741 18.4875 9.76086 17.25 9.76086C16.0125 9.76086 15 10.7741 15 12.0139ZM13.5 12.0139C13.5 9.94088 15.18 8.25938 17.25 8.25938C19.32 8.25938 21 9.94088 21 12.0139C21 14.0861 19.32 15.7676 17.25 15.7676C15.18 15.7676 13.5 14.0861 13.5 12.0139Z" fill="black"/>
</svg>

<svg xmlns="http://www.w3.org/2000/svg" width="24" height="25" fill="none" viewBox="0 0 24 25"><path fill="currentColor" fill-rule="evenodd" d="M12 22.526c-5.79 0-10.5-4.716-10.5-10.512 0-1.953.54-3.86 1.56-5.512a.77.77 0 0 0 .038-.72l-.383-1.135 1.92-1.93 1.11.376c.232.12.518.113.75-.03 3.292-2.042 7.695-2.05 11.002 0a.78.78 0 0 0 .706.045l1.155-.39 1.927 1.93-.39 1.148a.74.74 0 0 0 .045.706 10.5 10.5 0 0 1 1.56 5.512c0 5.796-4.71 10.512-10.5 10.512M22.403 6.02l.45-1.336a.76.76 0 0 0-.18-.774l-2.58-2.583a.75.75 0 0 0-.773-.18l-1.343.45c-3.637-2.094-8.332-2.094-11.954 0l-1.35-.45a.75.75 0 0 0-.773.18L1.328 3.911a.76.76 0 0 0-.18.774l.45 1.344A11.94 11.94 0 0 0 0 12.014c0 6.622 5.385 12.013 12 12.013s12-5.39 12-12.013c0-2.11-.555-4.176-1.598-5.993M6.75 14.266a2.26 2.26 0 0 1-2.25-2.252A2.26 2.26 0 0 1 6.75 9.76 2.26 2.26 0 0 1 9 12.014a2.26 2.26 0 0 1-2.25 2.252m0-6.007A3.753 3.753 0 0 0 3 12.014a3.753 3.753 0 0 0 3.75 3.754c2.07 0 3.75-1.682 3.75-3.754a3.753 3.753 0 0 0-3.75-3.755m6.262 10.775a.363.363 0 0 0 0-.525l-.487-.489.487-.488a.36.36 0 0 0 0-.525.36.36 0 0 0-.524 0l-.488.488-.488-.488a.36.36 0 0 0-.524 0 .36.36 0 0 0 0 .525l.487.488-.487.489a.363.363 0 0 0 0 .525.35.35 0 0 0 .262.113.35.35 0 0 0 .262-.113l.488-.488.488.488a.35.35 0 0 0 .262.113.35.35 0 0 0 .262-.113M9.75 18.02A2.25 2.25 0 0 1 12 15.768a2.247 2.247 0 0 1 2.25 2.252A2.25 2.25 0 0 1 12 20.273a2.25 2.25 0 0 1-2.25-2.253m3.262-11.526c.15.143.15.384 0 .526a.35.35 0 0 1-.262.113.35.35 0 0 1-.262-.113L12 6.532l-.488.488a.35.35 0 0 1-.262.113.35.35 0 0 1-.262-.113.363.363 0 0 1 0-.526l.487-.488-.487-.488a.36.36 0 0 1 0-.525.36.36 0 0 1 .524 0L12 5.48l.488-.487a.36.36 0 0 1 .524 0c.15.142.15.382 0 .525l-.487.488zM12 3.754a2.25 2.25 0 0 0-2.25 2.252A2.25 2.25 0 0 0 12 8.26a2.25 2.25 0 0 0 2.25-2.253A2.25 2.25 0 0 0 12 3.754m3 8.26a2.26 2.26 0 0 0 2.25 2.252 2.26 2.26 0 0 0 2.25-2.252 2.26 2.26 0 0 0-2.25-2.253A2.26 2.26 0 0 0 15 12.014m-1.5 0a3.753 3.753 0 0 1 3.75-3.755c2.07 0 3.75 1.682 3.75 3.755a3.753 3.753 0 0 1-3.75 3.754 3.753 3.753 0 0 1-3.75-3.754" clip-rule="evenodd"/></svg>
